X: 38185
T: Spotted Socks, The
R: reel
M: 4/4
K: Dmajor
|:A,DDE (3FGF ED|CDEF GABc|(3ded ec dBAG|F2EF DCB,D|
A,DDE (3FGF ED|CDEF GABc|(3ded ec dBAG|FGEF D3B,:|
|:Adde (3fgf ef|gfec dcBc|Adde (3fgf ef|gfec d3B|
Adde (3fgf ef|gfec dcBc|affa geeg|fdec d3A:|

